X:1
T: The Walls of Liscarroll
C:
R:Jig
Q:180
K:D
M:6/8
L:1/16
A2|:d2c2A2 A2G2E2|G2E2E2 D4E2|G2E2E2 c2E2E2|G2A2B2 =c4e2|
d2c2A2 A2G2E2|G2E2E2 D4E2|G2E2E2 =c2E2E2|D2E2D2 D4A2:|
|:d2c2d2 e2c2A2|d2c2d2 e2c2A2|=c2d2d2 d2B2A2|G2A2B2 =c2G2E2|
A2d2e2 f2e2d2|e2d2c2 d2c2A2|G2E2E2 =c2E2E2|1D2E2D2 D4A2:|2D2E2D2 D4||
